imgs/Tools_Icons/ansible.svg

<svg xmlns="http://www.w3.org/2000/svg"  viewBox="0 0 32 32" width="32px" height="32px"><path d="M 16.001953 2.9980469 C 8.8249531 2.9980469 3.0019531 8.8220469 3.0019531 15.998047 C 3.0019531 23.176047 8.8239531 28.999047 16.001953 28.998047 C 23.177953 28.998047 29.001953 23.175047 29.001953 15.998047 C 29.001953 8.8220469 23.177953 2.9980469 16.001953 2.9980469 z M 16.001953 4.9980469 C 22.072953 4.9980469 27.001953 9.9270469 27.001953 15.998047 C 27.001953 22.070047 22.071953 26.999047 16.001953 26.998047 C 9.9299531 26.998047 5.0019531 22.070047 5.0019531 15.998047 C 5.0019531 9.9270469 9.9299531 4.9980469 16.001953 4.9980469 z M 16 9.0019531 C 15.626625 9.0019531 15.252578 9.2029688 15.080078 9.6054688 L 9.7695312 21.998047 L 11.945312 21.998047 L 14.142578 16.873047 L 20.078125 21.771484 C 20.882125 22.435484 22.044766 21.565469 21.634766 20.605469 L 16.919922 9.6054688 C 16.746922 9.2029688 16.373375 9.0019531 16 9.0019531 z M 16 12.537109 L 18.171875 17.605469 L 14.962891 14.957031 L 16 12.537109 z"/></svg>

<svg xmlns="http://www.w3.org/2000/svg" width="32" height="32"><path d="M16.002 2.998c-7.177 0-13 5.824-13 13 0 7.178 5.822 13.001 13 13 7.176 0 13-5.823 13-13 0-7.176-5.824-13-13-13zm0 2c6.071 0 11 4.929 11 11 0 6.072-4.93 11.001-11 11-6.072 0-11-4.928-11-11 0-6.071 4.928-11 11-11zM16 9.002a.986.986 0 0 0-.92.603L9.77 21.998h2.175l2.198-5.125 5.935 4.898c.804.664 1.967-.206 1.557-1.166l-4.715-11a.987.987 0 0 0-.92-.603zm0 3.535 2.172 5.068-3.21-2.648L16 12.537z"/></svg>
